src/pos-icons/file-edit-outline.svg

<svg height="24" viewBox="0 0 24 24" width="24" xmlns="http://www.w3.org/2000/svg"><path d="m10 20h-4v-16h7v5h5v3.1l2-2v-2.1l-6-6h-8c-1.1 0-2 .9-2 2v16c0 1.1.9 2 2 2h4zm10.2-7c.1 0 .3.1.4.2l1.3 1.3c.2.2.2.6 0 .8l-1 1-2.1-2.1 1-1c.1-.1.2-.2.4-.2m0 3.9-6.1 6.1h-2.1v-2.1l6.1-6.1z"/></svg>

<?xml version="1.0" encoding="UTF-8"?><!DOCTYPE svg PUBLIC "-//W3C//DTD SVG 1.1//EN" "http://www.w3.org/Graphics/SVG/1.1/DTD/svg11.dtd"><svg xmlns="http://www.w3.org/2000/svg" xmlns:xlink="http://www.w3.org/1999/xlink" version="1.1" id="mdi-file-edit-outline" width="24" height="24" viewBox="0 0 24 24"><path d="M10 20H6V4H13V9H18V12.1L20 10.1V8L14 2H6C4.9 2 4 2.9 4 4V20C4 21.1 4.9 22 6 22H10V20M20.2 13C20.3 13 20.5 13.1 20.6 13.2L21.9 14.5C22.1 14.7 22.1 15.1 21.9 15.3L20.9 16.3L18.8 14.2L19.8 13.2C19.9 13.1 20 13 20.2 13M20.2 16.9L14.1 23H12V20.9L18.1 14.8L20.2 16.9Z" /></svg>
